src/components/00-materials/images-raw/Suitcase_1.svg

<svg width="96" height="96" viewBox="0 0 96 96" fill="none" xmlns="http://www.w3.org/2000/svg">
<path d="M20 51V75C20 76.0609 20.4214 77.0783 21.1716 77.8284C21.9217 78.5786 22.9391 79 24 79H72C73.0609 79 74.0783 78.5786 74.8284 77.8284C75.5786 77.0783 76 76.0609 76 75V51M63 22L61 19.5C59.38 17.58 58.4 17 55.61 17H40.39C37.6 17 36.62 17.58 35 19.5L33 22M63 22H33M63 22L67 27M33 22L29 27M54 33H42M69 73H27M55.86 51H40" stroke="#00008F" stroke-width="2" stroke-linecap="round" stroke-linejoin="round"/>
<path d="M28 51H21C19.9391 51 18.9217 50.5786 18.1716 49.8284C17.4214 49.0783 17 48.0609 17 47V31C17 29.9391 17.4214 28.9217 18.1716 28.1716C18.9217 27.4214 19.9391 27 21 27H75C76.0609 27 77.0783 27.4214 77.8284 28.1716C78.5786 28.9217 79 29.9391 79 31V47C79 48.0609 78.5786 49.0783 77.8284 49.8284C77.0783 50.5786 76.0609 51 75 51H68.86" stroke="#00008F" stroke-width="2" stroke-linecap="round" stroke-linejoin="round"/>
<path d="M28 49V53C28 54.1046 28.8954 55 30 55H38C39.1046 55 40 54.1046 40 53V49C40 47.8954 39.1046 47 38 47H30C28.8954 47 28 47.8954 28 49Z" stroke="#00008F" stroke-width="2" stroke-linecap="round" stroke-linejoin="round"/>
<path d="M56.02 49V53C56.02 54.1046 56.9154 55 58.02 55H66.02C67.1246 55 68.02 54.1046 68.02 53V49C68.02 47.8954 67.1246 47 66.02 47H58.02C56.9154 47 56.02 47.8954 56.02 49Z" stroke="#00008F" stroke-width="2" stroke-linecap="round" stroke-linejoin="round"/>
</svg>

<svg width="96" height="96" viewBox="0 0 96 96" fill="none" xmlns="http://www.w3.org/2000/svg"><path d="M20 51v24a4 4 0 004 4h48a4 4 0 004-4V51M63 22l-2-2.5c-1.62-1.92-2.6-2.5-5.39-2.5H40.39c-2.79 0-3.77.58-5.39 2.5L33 22m30 0H33m30 0l4 5m-34-5l-4 5m25 6H42m27 40H27m28.86-22H40" stroke="#00008F" stroke-width="2" stroke-linecap="round" stroke-linejoin="round"/><path d="M28 51h-7a4 4 0 01-4-4V31a4 4 0 014-4h54a4 4 0 014 4v16a4 4 0 01-4 4h-6.14" stroke="#00008F" stroke-width="2" stroke-linecap="round" stroke-linejoin="round"/><path d="M28 49v4a2 2 0 002 2h8a2 2 0 002-2v-4a2 2 0 00-2-2h-8a2 2 0 00-2 2zM56.02 49v4a2 2 0 002 2h8a2 2 0 002-2v-4a2 2 0 00-2-2h-8a2 2 0 00-2 2z" stroke="#00008F" stroke-width="2" stroke-linecap="round" stroke-linejoin="round"/></svg>
